X: 1
T: Mister Moore's Hornpipe
C: Trad
O: Derbyshire, England; Thomas Watts ms.
R: hornpipe
M: 4/4
L: 1/8
K: Emin
|:BA|"Em"G2e2G2FE|"D"DEFD"Bm"B2F2|"Em"G2e2G2FE|"D"D2F2z2F2|
"Em"G2e2G2FE|"D"DEFD"Bm"B2F2|"G"GABG "D"FGAF|"Em"D2E4:|
|:B2|"Em"e2ge"C"c2e2|"D" defd"Bm"B2f2|"Em"e2ge"C"c2e2|d2f2z2f2|
"Em"e2ge"C"c2e2|"D" defd"Bm"B2f2| "Am"A2cA"D"F2AF| "Em"D2E4:| 